X:1
T:Title
%%score 1 { 2 | 3 }
L:1/8
Q:1/4=90
M:6/8
K:D
V:1 treble nm="Grand Piano, Soprano"
V:2 bass nm="Choir Pad, Where Is My Soul Tonight?"
V:3 bass 
V:1
 [DF][DF][EG] [FA]2 [FA] | [GB]2 [GB] [FA]2 [FA] | [Fd]>[Fd][Fd] [Fd]2 [Fd] | %3
w: By~William~James~Kirkpatrick * * * *|||
 [Fc]3- [Fc]3/2 z/ [Ec] | [DB]>[DB][DB] [Dd]2 [GB] | [GB]2 [FA] [FA]2 [FA] | %6
w: |||
 [EG][^DF][EG] [FA]2 [EG] | [DF]3- [DF]3/2 z/ [FA] | [Fd]>[Fd][Fd] .[Fc]3 | [DB]>[GB][GB] .[FA]3 | %10
w: ||||
 [EA][E^G][EA] [Ec]2 [DB] | [CA]3- [CA]3/2 z/ [EG] | [DF]2 [EG] [FA]2 [FA] | %13
w: |||
 [A=c]>[Ac][GB] [FA]2 [Fd] | [Gd]>[Gd][Gd] [Fd]2 [Ec] | [Fd]6- | [Fd]3 z3 |] %17
w: ||||
V:2
 A,A,A, D2 D | D2 D D2 D | A,>[K:bass]A,A, B,2 B, | ^A,3- A,3/2 z/ A, | B,>B,B, B,2[K:treble] D | %5
 D2 D D2 A, | A,A,A, A,2 A, | A,3- A,3/2 z/ A, | B,>B,B, .^A,3 | B,>[K:treble]DD .D3 | %10
 CB,C[K:bass] A,2 ^G, | A,3- A,3/2 z/ B, | A,2 A,[K:treble] D2 D | D>DD D2 =C | B,>B,^A, =A,2 A, | %15
 A,6- | A,3 z3 |] %17
V:3
 D,D,D, D,2 D, | G,2 G, D,2 D, | D,>D,D, B,,2 B,, | F,3- F,3/2 z/ F, | G,>G,G, G,2 G, | %5
 D,2 D, D,2 D, | A,,A,,A,, A,,2 A,, | D,3- D,3/2 z/ D, | B,,>B,,B,, .[F,,F,]3 | G,>G,G, .D,3 | %10
 E,E,E, E,2 E, | A,,3- A,,3/2 z/ A,, | D,2 D, D,2 D, | D,>D,D, D,2 D, | G,>G,G, z2 A,, | D,6- | %16
 D,3 z3 |] %17

